Hatter/scalable/apps/distributor-logo-kali.svg

<?xml version="1.0" encoding="UTF-8"?>
<svg id="svg17" width="64" height="64" version="1.1" viewBox="0 0 16.933 16.933" xmlns="http://www.w3.org/2000/svg" xmlns:cc="http://creativecommons.org/ns#" xmlns:dc="http://purl.org/dc/elements/1.1/" xmlns:rdf="http://www.w3.org/1999/02/22-rdf-syntax-ns#" xmlns:xlink="http://www.w3.org/1999/xlink">
 <metadata id="metadata21">
  <rdf:RDF>
   <cc:Work rdf:about="">
    <dc:format>image/svg+xml</dc:format>
    <dc:type rdf:resource="http://purl.org/dc/dcmitype/StillImage"/>
    <dc:title/>
   </cc:Work>
  </rdf:RDF>
 </metadata>
 <defs id="defs7">
  <style id="style4" type="text/css"/>
  <filter id="filter1057" x="-.027" y="-.027" width="1.054" height="1.054" color-interpolation-filters="sRGB">
   <feGaussianBlur id="feGaussianBlur1059" stdDeviation="0.61875"/>
  </filter>
  <linearGradient id="linearGradient1053" x1="-127" x2="-127" y1="60" y2="5" gradientTransform="matrix(.26458 0 0 .26458 34.792 -.13493)" gradientUnits="userSpaceOnUse">
   <stop id="stop1047" stop-color="#32d7ff" offset="0"/>
   <stop id="stop1049" stop-color="#329bff" offset="1"/>
  </linearGradient>
  <style id="style872" type="text/css"/>
  <style id="style4-5" type="text/css"/>
  <style id="style6" type="text/css"/>
  <style id="style8" type="text/css"/>
  <style id="style872-0" type="text/css"/>
  <style id="style874" type="text/css"/>
  <style id="style876" type="text/css"/>
 </defs>
 <rect id="rect1055" transform="scale(.26458)" x="4.5" y="4.5" width="55" height="55" ry="15" fill="#141414" filter="url(#filter1057)" opacity=".3" stroke-linecap="round" stroke-width="2.7444"/>
 <rect id="rect1045" x="1.1906" y="1.1906" width="14.552" height="14.552" ry="3.9687" fill="url(#linearGradient1053)" stroke-linecap="round" stroke-width=".7261"/>
 <circle id="circle869" cx="-308.78" cy="-318.95" r="0" fill="#5e4aa6" stroke-width=".26458"/>
 <circle id="circle871" cx="-17.864" cy="15.866" r="0" fill="#5e4aa6" fill-rule="evenodd" stroke-width=".26458"/>
 <path id="path900" d="m7.818 3.767c0.224 0.599 0.49 1.281 0.887 1.8-0.437-0.216-0.923-0.36-1.303-0.668 0.047 0.12 0.03 0.249 0.026 0.35a5.317 5.317 0 0 1-0.952-0.377c0.08 0.15 0.093 0.31 0.073 0.45-0.326 0.03-0.679-0.072-0.98-0.126 0.138 0.125 0.203 0.29 0.259 0.456-0.322 0.056-0.654 0.115-0.98 0.146 0.138 0.093 0.24 0.228 0.319 0.357-0.253 0.212-0.573 0.403-0.834 0.563a0.638 0.638 0 0 1 0.463 0.125 9.444 9.444 0 0 1-0.563 0.88c0.164-0.039 0.312-0.073 0.49-0.073-0.062 0.352-0.106 0.72-0.238 1.052 0.147-0.107 0.306-0.161 0.47-0.218 0.157 0.267 0.173 0.703 0.231 0.938a0.498 0.498 0 0 1 0.258-0.29c1.78 1.748 4.71 1.442 4.967 4.034 0.08-1.01-0.398-1.724-0.952-2.215-0.46-0.408-2.555-1.378-2.653-1.442-1.801-1.194-1.558-2.807-0.29-3.215a2.727 2.727 0 0 1 3.015 0.946c0.176 0.223 0.427 0.631 0.662 0.807 0.445 0.334 2.036 1.109 1.409 2.03 0.545-0.14 0.961-0.53 1.098-1.077-0.427-0.183-1.07-0.57-1.019-1.112 0.062-0.026 0.13-0.02 0.199-0.02-1.436-2.5-1.819-1.63-3.261-3.955 0.18 0.644 0.572 1.438 1.044 1.879-0.783-0.47-1.291-1.313-1.845-2.025zm2.95 3.155c0.163 0.227 0.3 0.48 0.496 0.675-0.19-0.066-0.945-0.563-0.496-0.675z" fill="#fff"/>
 <circle id="circle16" cx="-319.2" cy="-341.43" r="0" fill="#5e4aa6" stroke-width=".26458"/>
 <g id="g26" transform="translate(11.16 -13.055)" fill="#5e4aa6" stroke-width=".26458">
  <circle id="circle18" cx="-299.02" cy="-338.77" r="0"/>
  <circle id="circle20" cx="-8.1062" cy="-3.9487" r="0" fill-rule="evenodd"/>
  <circle id="circle22" cx="-278.25" cy="-357.69" r="0"/>
  <circle id="circle24" cx="12.663" cy="-22.859" r="0" fill-rule="evenodd"/>
 </g>
</svg>

<?xml version="1.0" encoding="UTF-8" standalone="no"?>
<svg
   xmlns:dc="http://purl.org/dc/elements/1.1/"
   xmlns:cc="http://creativecommons.org/ns#"
   xmlns:rdf="http://www.w3.org/1999/02/22-rdf-syntax-ns#"
   xmlns:svg="http://www.w3.org/2000/svg"
   xmlns="http://www.w3.org/2000/svg"
   xmlns:xlink="http://www.w3.org/1999/xlink"
   xmlns:sodipodi="http://sodipodi.sourceforge.net/DTD/sodipodi-0.dtd"
   xmlns:inkscape="http://www.inkscape.org/namespaces/inkscape"
   width="64"
   height="64"
   version="1.1"
   viewBox="0 0 16.933 16.933"
   id="svg17"
   sodipodi:docname="distributor-logo-kali.svg"
   inkscape:version="1.0 (4035a4fb49, 2020-05-01)">
  <metadata
     id="metadata21">
    <rdf:RDF>
      <cc:Work
         rdf:about="">
        <dc:format>image/svg+xml</dc:format>
        <dc:type
           rdf:resource="http://purl.org/dc/dcmitype/StillImage" />
        <dc:title></dc:title>
      </cc:Work>
    </rdf:RDF>
  </metadata>
  <sodipodi:namedview
     inkscape:document-rotation="0"
     pagecolor="#ffffff"
     bordercolor="#666666"
     borderopacity="1"
     objecttolerance="10"
     gridtolerance="10"
     guidetolerance="10"
     inkscape:pageopacity="0"
     inkscape:pageshadow="2"
     inkscape:window-width="1920"
     inkscape:window-height="964"
     id="namedview19"
     showgrid="false"
     inkscape:zoom="4.391796"
     inkscape:cx="-36.4383"
     inkscape:cy="5.4968157"
     inkscape:window-x="0"
     inkscape:window-y="36"
     inkscape:window-maximized="1"
     inkscape:current-layer="svg17" />
  <defs
     id="defs7">
    <linearGradient
       id="a"
       x1="45.628"
       x2="45.628"
       y1="57.955"
       y2="12.461"
       gradientTransform="matrix(0.26458,0,0,0.26458,0,280.07)"
       gradientUnits="userSpaceOnUse">
      <stop
         offset="0"
         id="stop2" />
      <stop
         stop-opacity="0"
         offset="1"
         id="stop4" />
    </linearGradient>
    <linearGradient
       gradientUnits="userSpaceOnUse"
       gradientTransform="matrix(0.53033,0,0,0.53033,9.7971589,65.996156)"
       y2="-100.78"
       y1="-137.82"
       x2="-6.1472"
       x1="-6.1472"
       id="a-3">
      <stop
         id="stop848"
         offset="0"
         stop-color="#32b4ff" />
      <stop
         id="stop850"
         offset="1"
         stop-color="#3287ff" />
    </linearGradient>
    <style
       id="style4"
       type="text/css" />
    <filter
       color-interpolation-filters="sRGB"
       height="1.048"
       width="1.048"
       y="-.024"
       x="-.024"
       id="filter2761">
      <feGaussianBlur
         id="feGaussianBlur6"
         stdDeviation="0.14552168" />
    </filter>
    <linearGradient
       gradientUnits="userSpaceOnUse"
       gradientTransform="matrix(3.7796,0,0,3.7796,110.07575,0.53066)"
       y2="1.1082"
       y1="15.429"
       x2="15.644"
       x1="1.2573"
       id="linearGradient4673">
      <stop
         id="stop9"
         offset="0"
         stop-color="#32dcff" />
      <stop
         id="stop11"
         offset="1"
         stop-color="#3296ff" />
    </linearGradient>
    <linearGradient
       gradientUnits="userSpaceOnUse"
       gradientTransform="matrix(1.0000066,0,0,1.0000066,19.187825,0)"
       y2="1.0583"
       y1="6.879"
       x2="7.9373"
       x1="7.9373"
       id="linearGradient865">
      <stop
         id="stop2-36"
         offset="0"
         stop-color="#fff" />
      <stop
         id="stop4-7"
         offset="1"
         stop-color="#fcc" />
    </linearGradient>
    <linearGradient
       gradientTransform="translate(19.187825)"
       gradientUnits="userSpaceOnUse"
       y2="3.9327"
       y1="14.579"
       x2="12.314"
       x1="2.6278"
       id="linearGradient855">
      <stop
         id="stop7"
         offset="0"
         stop-color="#d462aa" />
      <stop
         id="stop9-3"
         offset=".15178"
         stop-color="#56c7d9" />
      <stop
         id="stop11-6"
         offset=".33294"
         stop-color="#2da8b8" />
      <stop
         id="stop13"
         offset=".53353"
         stop-color="#72cb6b" />
      <stop
         id="stop15"
         offset=".71019"
         stop-color="#c4dc2b" />
      <stop
         id="stop17"
         offset=".8623"
         stop-color="#f9da3e" />
      <stop
         id="stop19"
         offset="1"
         stop-color="#f69429" />
    </linearGradient>
    <linearGradient
       gradientUnits="userSpaceOnUse"
       gradientTransform="matrix(0.26458,0,0,0.26458,19.187825,0)"
       y2="6.9915"
       y1="19"
       x2="57.008"
       x1="45"
       id="linearGradient910">
      <stop
         id="stop22"
         offset="0"
         stop-color="#fff" />
      <stop
         id="stop24"
         offset="1"
         stop-color="#ffe3cc" />
    </linearGradient>
    <filter
       inkscape:collect="always"
       style="color-interpolation-filters:sRGB"
       id="filter1057"
       x="-0.027000001"
       width="1.054"
       y="-0.027000001"
       height="1.054">
      <feGaussianBlur
         inkscape:collect="always"
         stdDeviation="0.61875"
         id="feGaussianBlur1059" />
    </filter>
    <linearGradient
       inkscape:collect="always"
       xlink:href="#linearGradient1051"
       id="linearGradient1053"
       x1="-127"
       y1="60"
       x2="-127"
       y2="5"
       gradientUnits="userSpaceOnUse"
       gradientTransform="matrix(0.26457812,0,0,0.26457812,34.792023,-0.13493438)" />
    <linearGradient
       inkscape:collect="always"
       id="linearGradient1051">
      <stop
         style="stop-color:#32d7ff;stop-opacity:1"
         offset="0"
         id="stop1047" />
      <stop
         style="stop-color:#329bff;stop-opacity:1"
         offset="1"
         id="stop1049" />
    </linearGradient>
    <style
       type="text/css"
       id="style872" />
    <filter
       id="filter2761-7"
       x="-.024"
       y="-.024"
       width="1.048"
       height="1.048"
       color-interpolation-filters="sRGB">
      <feGaussianBlur
         stdDeviation="0.14552168"
         id="feGaussianBlur874" />
    </filter>
    <style
       id="style4-5"
       type="text/css" />
    <style
       id="style6"
       type="text/css" />
    <style
       id="style8"
       type="text/css" />
    <filter
       color-interpolation-filters="sRGB"
       height="1.048"
       width="1.048"
       y="-.024"
       x="-.024"
       id="filter2761-36">
      <feGaussianBlur
         id="feGaussianBlur10"
         stdDeviation="0.14552168" />
    </filter>
    <linearGradient
       gradientUnits="userSpaceOnUse"
       gradientTransform="matrix(3.7796,0,0,3.7796,111.78704,0.53107)"
       y2="1.17"
       y1="15.576"
       x2="15.65"
       x1="1.3315"
       id="linearGradient1024-6">
      <stop
         id="stop13-7"
         offset="0"
         stop-color="#00dc96" />
      <stop
         id="stop15-5"
         offset="1"
         stop-color="#14d29b" />
    </linearGradient>
    <linearGradient
       gradientUnits="userSpaceOnUse"
       gradientTransform="matrix(0.27476,0,0,0.27476,-24.952118,-0.32515)"
       y2="12.461"
       y1="57.955"
       x2="45.628"
       x1="45.628"
       id="b">
      <stop
         id="stop2-3"
         offset="0" />
      <stop
         id="stop4-5"
         offset="1"
         stop-opacity="0" />
    </linearGradient>
    <style
       type="text/css"
       id="style872-0" />
    <style
       type="text/css"
       id="style874" />
    <style
       type="text/css"
       id="style876" />
    <filter
       id="filter2761-3"
       x="-.024"
       y="-.024"
       width="1.048"
       height="1.048"
       color-interpolation-filters="sRGB">
      <feGaussianBlur
         stdDeviation="0.14552168"
         id="feGaussianBlur878" />
    </filter>
    <linearGradient
       id="linearGradient1024-6-6"
       x1="1.3315"
       x2="15.65"
       y1="15.576"
       y2="1.17"
       gradientTransform="matrix(3.7796,0,0,3.7796,-0.0020773,0.53047)"
       gradientUnits="userSpaceOnUse">
      <stop
         stop-color="#00dc96"
         offset="0"
         id="stop881" />
      <stop
         stop-color="#14d29b"
         offset="1"
         id="stop883" />
    </linearGradient>
  </defs>
  <rect
     transform="scale(0.26457812)"
     style="opacity:0.3;fill:#141414;fill-opacity:1;stroke-width:2.74436;stroke-linecap:round;filter:url(#filter1057)"
     id="rect1055"
     width="55"
     height="55"
     x="4.4999995"
     y="4.4999995"
     ry="15" />
  <rect
     ry="3.9686716"
     y="1.1906021"
     x="1.1906021"
     height="14.551796"
     width="14.551796"
     id="rect1045"
     style="fill:url(#linearGradient1053);fill-opacity:1;stroke-width:0.726098;stroke-linecap:round" />
  <circle
     cx="-308.78006"
     cy="-318.95218"
     r="0"
     fill="#5e4aa6"
     stroke-width="0.26458"
     id="circle869" />
  <circle
     cx="-17.864065"
     cy="15.865837"
     r="0"
     fill="#5e4aa6"
     fill-rule="evenodd"
     stroke-width="0.26458"
     id="circle871" />
  <path
     id="path900"
     fill="#ffffff"
     d="m 7.818,3.7669999 c 0.224,0.599 0.49,1.281 0.887,1.8 -0.437,-0.216 -0.923,-0.36 -1.303,-0.668 0.047,0.12 0.03,0.249 0.026,0.35 a 5.317,5.317 0 0 1 -0.952,-0.377 c 0.08,0.15 0.093,0.31 0.073,0.45 -0.326,0.03 -0.679,-0.072 -0.98,-0.126 0.138,0.125 0.203,0.29 0.259,0.456 -0.322,0.056 -0.654,0.115 -0.98,0.146 0.138,0.093 0.24,0.228 0.319,0.357 -0.253,0.212 -0.573,0.403 -0.834,0.563 a 0.638,0.638 0 0 1 0.463,0.125 9.444,9.444 0 0 1 -0.563,0.88 c 0.164,-0.039 0.312,-0.073 0.49,-0.073 -0.062,0.352 -0.106,0.7200001 -0.238,1.052 0.147,-0.107 0.306,-0.1609999 0.47,-0.218 0.157,0.267 0.173,0.703 0.231,0.9380001 A 0.498,0.498 0 0 1 5.444,9.1319999 C 7.224,10.88 10.154,10.574 10.411,13.166 10.491,12.156 10.013,11.442 9.459,10.951 8.999,10.543 6.904,9.573 6.806,9.509 5.005,8.315 5.248,6.7019999 6.516,6.2939999 a 2.727,2.727 0 0 1 3.015,0.946 c 0.176,0.223 0.427,0.631 0.662,0.8070001 0.445,0.334 2.036,1.1089999 1.409,2.03 C 12.147,9.937 12.563,9.5470001 12.7,9 12.273,8.817 11.63,8.4299999 11.681,7.8879999 11.743,7.862 11.811,7.868 11.88,7.868 10.444,5.368 10.061,6.238 8.619,3.913 8.799,4.557 9.191,5.3509999 9.663,5.7919999 8.88,5.322 8.372,4.479 7.818,3.7669999 Z m 2.95,3.155 c 0.163,0.227 0.3,0.48 0.496,0.675 -0.19,-0.066 -0.945,-0.563 -0.496,-0.675 z" />
  <circle
     style="stroke-width:0.264578"
     cx="-319.20044"
     cy="-341.42719"
     r="0"
     fill="#5e4aa6"
     id="circle16" />
  <g
     transform="translate(11.15975,-13.055043)"
     fill="#5e4aa6"
     stroke-width="0.26458"
     id="g26">
    <circle
       cx="-299.01999"
       cy="-338.76999"
       r="0"
       id="circle18" />
    <circle
       cx="-8.1062002"
       cy="-3.9487"
       r="0"
       fill-rule="evenodd"
       id="circle20" />
    <circle
       cx="-278.25"
       cy="-357.69"
       r="0"
       id="circle22" />
    <circle
       cx="12.663"
       cy="-22.858999"
       r="0"
       fill-rule="evenodd"
       id="circle24" />
  </g>
</svg>
